X:55
T: Silver Spoon
C: D.Galvin
Z: B.Black
R: reel
M: 4/4
L: 1/8
K: Ddor
Ac |d3 e dcAG |ADFA c2 Bc |dcAG FEFA | G2 FG ECCE |
Dd (3d^cd ed=ce | dcAB cdec | dcAG ADFA | cAGc AD :|
FG |Aded ADFG |Adfa gfdc |Ac (3cBc GCEG | Acea agec |
Add^c d=cec |dBAc cdec|dcAG ADFA|1 cAGc AD :|2 CAGE D4 ||
